X: 27657
T: Moran's Return
R: barndance
M: 4/4
K: Edorian
|:(3FGA|B>E E2 E2 A>G|F>D D2 D2 d>e|f>ed>c dBAF|E2 E>F G2 (3FGA|
B2 E2 E2 AG|F>D D2 D2 d>e|f>ed>c dBAF|1 E2 D2 D2:|2 E2 D2 D2 FE||
|:D2 d>c d3 e|f>edc B2 AF|B2 e2 e3f|gfed e2 d>e|
f2 g>f e2 f>e|d>edB A2 d>e|f>ed>c dBAF|1 E2 D2 D2 FE:|2 E2 D2 D2 (3FGA||

